X:1
T:the De'il Among the Mantua-Makers
B:William Marshall's Scottish Airs, Melodies, Strathspeys, Reels &c (1822)
C:William Marshall
M:C|
L:1/8
O:Scotland
R:Reel
%%Caption:Named so, at the request of a lady in Moray-Shire
%%Page:19 - 2
Z:Clark Bernst + Richard Robinson
F:http://richardrobinson.tunebook.org.uk/tune/6570
%%TBL:{"version":1,"type":"tune","id":"6570"}
K:A
%%staves {1 2}
V:1
~c3d edcd | efga fedc | ~c3d edcd | fedc c2B2 :|
~E3G BGEG | ABcd ecAc | E3G BGEA | cAec !trill!c2 B2 | 
E3G BGEG | ABcd ecAc | dfdB cecA | dBAG A2A2 |]
V:2 middle=d clef=bass
L:1/4
[Aa] [Aa] [Aa] [Aa] | [Aa] [Aa] [Aa] [Aa] | [Aa] [Aa] [Aa] [Aa] | [Gg] [Aa] [Ee] [Ee] :| \
eeee | AAcA | eeee | AAEE | eeee | AAcA | ddcA | deAA |]

